X:339
T:West Fork gals
R:Reel
O:USA
B:Fiddler's Fakebook
S:Fiddler's Fakebook
Z:Transcription, minor arr., chords:Mike Long
M:C|
L:1/8
K:D
"D"f3e d2ef|"G"gfg2 B2f2|"A"e3d c2A2|"A"dBAG "D"FED2|\
"D"f3e d2ef|"G"g2g2 B4|"A"e3d c2A2|"A"ABc2 "D"d4:|
|:"D"A3G F3G|A2d2 F3F|"G"G2F2 "A"E2A2|"G"GDF2 "A"E4|\
"A"efed cABc|"D"d2A2 F2A2|"D"d2d2 "A"efge|"D"f2d2 d2z2:|
